images/hydration-icon.svg

<svg xmlns="http://www.w3.org/2000/svg" xmlns:xlink="http://www.w3.org/1999/xlink" width="120" zoomAndPan="magnify" viewBox="0 0 90 86.999996" height="116" preserveAspectRatio="xMidYMid meet" version="1.0"><defs><clipPath id="4da79be729"><path d="M 0 1.269531 L 89.25 1.269531 L 89.25 86.769531 L 0 86.769531 Z M 0 1.269531 " clip-rule="nonzero"/></clipPath><clipPath id="26bb787a4a"><path d="M 0 0 L 89.25 0 L 89.25 85.5 L 0 85.5 Z M 0 0 " clip-rule="nonzero"/></clipPath></defs><g clip-path="url(#4da79be729)"><path fill="#012430" d="M 53.316406 72.300781 L 49.546875 44.023438 L 56.5625 44.023438 L 57.34375 42.820312 C 57.636719 42.375 57.804688 41.917969 57.867188 41.417969 L 44.757812 41.433594 L 44.757812 47.867188 L 41.496094 47.867188 L 38.238281 72.300781 Z M 78.328125 79.574219 L 77.671875 84.503906 C 77.484375 85.898438 76.316406 86.925781 74.910156 86.925781 L 59.835938 86.925781 C 58.429688 86.925781 57.257812 85.898438 57.074219 84.503906 L 56.414062 79.574219 Z M 82.789062 46.132812 L 82.1875 50.660156 L 52.558594 50.660156 L 51.953125 46.132812 Z M 81.90625 52.769531 L 80.433594 63.808594 L 78.609375 77.460938 L 56.132812 77.460938 L 54.3125 63.808594 L 52.839844 52.769531 Z M 65.082031 67.929688 C 64.492188 67.929688 63.957031 68.171875 63.570312 68.558594 C 63.179688 68.945312 62.941406 69.484375 62.941406 70.074219 L 62.941406 74.652344 C 62.941406 75.242188 63.179688 75.777344 63.570312 76.164062 C 63.960938 76.554688 64.496094 76.792969 65.082031 76.792969 L 69.660156 76.792969 C 70.246094 76.792969 70.777344 76.554688 71.167969 76.167969 L 71.175781 76.160156 C 71.5625 75.769531 71.804688 75.238281 71.804688 74.652344 L 71.804688 70.074219 C 71.804688 69.527344 71.59375 69.023438 71.25 68.640625 C 71.226562 68.613281 71.203125 68.585938 71.175781 68.558594 C 70.789062 68.171875 70.25 67.929688 69.660156 67.929688 Z M 69.660156 70.039062 L 65.082031 70.039062 C 65.074219 70.039062 65.066406 70.042969 65.058594 70.050781 C 65.054688 70.058594 65.050781 70.066406 65.050781 70.074219 L 65.050781 74.652344 C 65.050781 74.660156 65.054688 74.667969 65.058594 74.671875 L 65.058594 74.679688 C 65.0625 74.683594 65.070312 74.683594 65.082031 74.683594 L 69.660156 74.683594 C 69.671875 74.683594 69.679688 74.683594 69.683594 74.679688 L 69.6875 74.675781 C 69.691406 74.671875 69.695312 74.664062 69.695312 74.652344 L 69.695312 70.074219 C 69.695312 70.066406 69.695312 70.0625 69.691406 70.058594 L 69.683594 70.050781 C 69.675781 70.042969 69.667969 70.039062 69.660156 70.039062 Z M 59.351562 57.785156 L 59.351562 57.792969 C 59.003906 58.140625 58.828125 58.59375 58.828125 59.046875 C 58.828125 59.503906 59.003906 59.960938 59.351562 60.308594 L 61.519531 62.480469 C 61.871094 62.828125 62.328125 63.003906 62.78125 63.003906 C 63.199219 63.003906 63.617188 62.855469 63.953125 62.5625 C 63.984375 62.539062 64.015625 62.511719 64.042969 62.480469 L 66.214844 60.308594 L 66.210938 60.308594 C 66.5625 59.957031 66.734375 59.5 66.734375 59.046875 C 66.734375 58.59375 66.5625 58.136719 66.214844 57.789062 L 64.042969 55.617188 C 63.695312 55.269531 63.238281 55.09375 62.78125 55.09375 C 62.363281 55.09375 61.945312 55.242188 61.609375 55.539062 C 61.578125 55.5625 61.550781 55.589844 61.519531 55.617188 Z M 62.78125 57.339844 L 61.074219 59.046875 L 62.78125 60.757812 L 64.492188 59.046875 Z M 70.3125 61.808594 L 70.316406 61.8125 L 70.3125 61.816406 C 69.925781 62.203125 69.730469 62.710938 69.730469 63.21875 C 69.730469 63.730469 69.925781 64.242188 70.3125 64.628906 L 73.105469 67.421875 C 73.496094 67.808594 74.003906 68.003906 74.515625 68.003906 C 75.027344 68.003906 75.535156 67.808594 75.925781 67.421875 L 78.71875 64.628906 C 79.105469 64.242188 79.300781 63.730469 79.300781 63.21875 C 79.300781 62.746094 79.132812 62.269531 78.792969 61.894531 C 78.769531 61.863281 78.746094 61.835938 78.71875 61.8125 L 75.925781 59.019531 C 75.535156 58.628906 75.027344 58.433594 74.515625 58.433594 L 74.515625 58.4375 C 74.003906 58.4375 73.492188 58.632812 73.105469 59.019531 L 70.3125 61.8125 Z M 74.515625 60.59375 L 71.886719 63.21875 L 74.515625 65.847656 L 77.144531 63.21875 Z M 69.753906 44.023438 L 70.789062 36.976562 C 70.867188 36.453125 71.316406 36.074219 71.832031 36.074219 L 88.269531 36.074219 C 88.851562 36.074219 89.324219 36.546875 89.324219 37.128906 C 89.324219 37.710938 88.851562 38.183594 88.269531 38.183594 L 72.742188 38.183594 L 71.882812 44.023438 Z M 42.644531 45.757812 L 6.242188 45.757812 L 6.242188 39.304688 L 42.648438 39.304688 L 42.648438 45.757812 Z M 9.984375 37.195312 C 10.195312 29.921875 16.210938 24.039062 23.53125 24.039062 L 25.359375 24.039062 C 32.679688 24.039062 38.691406 29.921875 38.902344 37.195312 Z M 9.519531 47.867188 L 39.367188 47.867188 L 37.324219 63.191406 L 34.601562 83.605469 C 34.417969 84.980469 33.265625 85.992188 31.878906 85.992188 L 17.011719 85.992188 C 15.625 85.992188 14.46875 84.980469 14.285156 83.605469 L 11.5625 63.191406 Z M 32.277344 50.769531 L 30.941406 60.789062 C 30.867188 61.363281 31.273438 61.890625 31.847656 61.964844 C 32.421875 62.042969 32.949219 61.636719 33.027344 61.058594 L 34.363281 51.039062 C 34.4375 50.464844 34.03125 49.9375 33.457031 49.863281 C 32.878906 49.789062 32.351562 50.191406 32.277344 50.769531 Z M 30.507812 64.042969 L 30.074219 67.289062 C 30 67.863281 30.40625 68.390625 30.980469 68.46875 C 31.554688 68.542969 32.082031 68.136719 32.160156 67.558594 L 32.589844 64.3125 C 32.667969 63.738281 32.261719 63.210938 31.683594 63.136719 C 31.109375 63.058594 30.582031 63.464844 30.507812 64.042969 Z M 29.445312 72.003906 L 28.097656 82.101562 C 28.023438 82.679688 28.429688 83.207031 29.003906 83.28125 C 29.582031 83.355469 30.109375 82.949219 30.183594 82.375 L 31.53125 72.277344 C 31.605469 71.699219 31.199219 71.171875 30.625 71.097656 C 30.046875 71.023438 29.519531 71.429688 29.445312 72.003906 Z M 16.875 23.421875 L 16.363281 19.964844 L 1.0625 19.964844 C 0.480469 19.964844 0.0078125 19.492188 0.0078125 18.910156 C 0.0078125 18.324219 0.480469 17.855469 1.0625 17.855469 L 17.273438 17.855469 C 17.789062 17.855469 18.238281 18.230469 18.316406 18.757812 L 18.886719 22.636719 C 18.195312 22.851562 17.523438 23.117188 16.875 23.421875 Z M 37.957031 74.410156 L 36.933594 82.09375 L 54.621094 82.09375 L 53.597656 74.410156 Z M 35.113281 1.277344 L 53.175781 1.277344 L 53.175781 6.382812 L 35.113281 6.382812 Z M 37.078125 27.226562 C 39.429688 29.882812 40.902344 33.339844 41.011719 37.132812 L 41.015625 37.195312 L 44.757812 37.195312 L 44.757812 39.304688 L 57.953125 39.304688 L 57.953125 27.226562 Z M 57.890625 25.117188 L 57.890625 25.054688 C 57.890625 19.828125 54.941406 15.261719 50.621094 12.9375 L 50.621094 8.492188 L 37.664062 8.492188 L 37.664062 12.9375 C 33.972656 14.925781 31.28125 18.554688 30.578125 22.828125 C 32.105469 23.371094 33.527344 24.148438 34.800781 25.117188 Z M 57.890625 25.117188 " fill-opacity="1" fill-rule="evenodd"/></g><g clip-path="url(#26bb787a4a)"><path fill="#012430" d="M 53.316406 71.03125 L 49.546875 42.75 L 56.5625 42.75 L 57.34375 41.550781 C 57.636719 41.101562 57.804688 40.648438 57.867188 40.144531 L 44.757812 40.164062 L 44.757812 46.597656 L 41.496094 46.597656 L 38.238281 71.03125 Z M 78.328125 78.300781 L 77.671875 83.234375 C 77.484375 84.628906 76.316406 85.652344 74.910156 85.652344 L 59.835938 85.652344 C 58.429688 85.652344 57.257812 84.628906 57.074219 83.234375 L 56.414062 78.300781 Z M 82.789062 44.859375 L 82.1875 49.390625 L 52.558594 49.390625 L 51.953125 44.859375 Z M 81.90625 51.5 L 80.433594 62.535156 L 78.609375 76.191406 L 56.132812 76.191406 L 54.3125 62.535156 L 52.839844 51.5 Z M 65.082031 66.660156 C 64.492188 66.660156 63.957031 66.898438 63.570312 67.289062 C 63.179688 67.675781 62.941406 68.210938 62.941406 68.800781 L 62.941406 73.378906 C 62.941406 73.972656 63.179688 74.507812 63.570312 74.894531 L 63.570312 74.890625 C 63.960938 75.28125 64.496094 75.523438 65.082031 75.523438 L 69.660156 75.523438 C 70.246094 75.523438 70.777344 75.285156 71.167969 74.898438 L 71.175781 74.890625 C 71.5625 74.5 71.804688 73.964844 71.804688 73.378906 L 71.804688 68.800781 C 71.804688 68.253906 71.59375 67.753906 71.25 67.371094 C 71.226562 67.34375 71.203125 67.3125 71.175781 67.289062 C 70.789062 66.898438 70.25 66.660156 69.660156 66.660156 Z M 69.660156 68.769531 L 65.082031 68.769531 C 65.074219 68.769531 65.066406 68.773438 65.058594 68.777344 C 65.054688 68.785156 65.050781 68.792969 65.050781 68.800781 L 65.050781 73.378906 C 65.050781 73.386719 65.054688 73.394531 65.058594 73.402344 L 65.058594 73.40625 C 65.0625 73.410156 65.070312 73.414062 65.082031 73.414062 L 69.660156 73.414062 C 69.671875 73.414062 69.679688 73.410156 69.683594 73.40625 L 69.6875 73.402344 C 69.691406 73.398438 69.695312 73.390625 69.695312 73.378906 L 69.695312 68.800781 C 69.695312 68.796875 69.695312 68.792969 69.691406 68.789062 L 69.683594 68.78125 C 69.675781 68.773438 69.667969 68.769531 69.660156 68.769531 Z M 59.351562 56.515625 L 59.351562 56.519531 C 59.003906 56.867188 58.828125 57.324219 58.828125 57.777344 C 58.828125 58.234375 59.003906 58.691406 59.351562 59.039062 L 61.519531 61.210938 C 61.871094 61.558594 62.328125 61.730469 62.78125 61.730469 C 63.199219 61.730469 63.617188 61.585938 63.953125 61.292969 C 63.984375 61.265625 64.015625 61.238281 64.042969 61.210938 L 66.214844 59.039062 L 66.210938 59.035156 C 66.5625 58.6875 66.734375 58.230469 66.734375 57.777344 C 66.734375 57.320312 66.5625 56.863281 66.214844 56.515625 L 64.042969 54.347656 C 63.695312 54 63.238281 53.824219 62.78125 53.824219 C 62.363281 53.824219 61.945312 53.972656 61.609375 54.269531 C 61.578125 54.292969 61.550781 54.316406 61.519531 54.347656 Z M 62.78125 56.066406 L 61.074219 57.777344 L 62.78125 59.488281 L 64.492188 57.777344 Z M 70.3125 60.539062 L 70.316406 60.542969 L 70.3125 60.542969 C 69.925781 60.933594 69.730469 61.441406 69.730469 61.949219 C 69.730469 62.457031 69.925781 62.96875 70.3125 63.359375 L 73.105469 66.152344 C 73.496094 66.539062 74.003906 66.734375 74.515625 66.734375 C 75.027344 66.734375 75.535156 66.539062 75.925781 66.152344 L 78.71875 63.359375 C 79.105469 62.96875 79.300781 62.457031 79.300781 61.949219 C 79.300781 61.476562 79.132812 61 78.792969 60.621094 C 78.769531 60.59375 78.746094 60.566406 78.71875 60.539062 L 75.925781 57.746094 C 75.535156 57.359375 75.027344 57.164062 74.515625 57.164062 L 74.515625 57.167969 C 74.003906 57.167969 73.492188 57.359375 73.105469 57.746094 Z M 74.515625 59.320312 L 71.886719 61.949219 L 74.515625 64.578125 L 77.144531 61.949219 Z M 69.753906 42.75 L 70.789062 35.707031 C 70.867188 35.179688 71.316406 34.804688 71.832031 34.804688 L 88.269531 34.804688 C 88.851562 34.804688 89.324219 35.277344 89.324219 35.859375 C 89.324219 36.441406 88.851562 36.914062 88.269531 36.914062 L 72.742188 36.914062 L 71.882812 42.75 Z M 42.644531 44.488281 L 6.242188 44.488281 L 6.242188 38.035156 L 42.648438 38.035156 L 42.648438 44.488281 Z M 9.984375 35.921875 C 10.195312 28.652344 16.210938 22.765625 23.53125 22.765625 L 25.359375 22.765625 C 32.679688 22.765625 38.691406 28.652344 38.902344 35.921875 Z M 9.519531 46.597656 L 39.367188 46.597656 L 37.324219 61.917969 L 34.601562 82.335938 C 34.417969 83.707031 33.265625 84.71875 31.878906 84.71875 L 17.011719 84.71875 C 15.625 84.71875 14.46875 83.707031 14.285156 82.335938 L 11.5625 61.917969 Z M 32.277344 49.496094 L 30.941406 59.515625 C 30.867188 60.09375 31.273438 60.621094 31.847656 60.695312 C 32.421875 60.769531 32.949219 60.363281 33.027344 59.789062 L 34.363281 49.769531 C 34.4375 49.195312 34.03125 48.667969 33.457031 48.589844 C 32.878906 48.515625 32.351562 48.921875 32.277344 49.496094 Z M 30.507812 62.769531 L 30.074219 66.015625 C 30 66.59375 30.40625 67.121094 30.980469 67.195312 C 31.554688 67.269531 32.082031 66.863281 32.160156 66.289062 L 32.589844 63.042969 C 32.667969 62.46875 32.261719 61.9375 31.683594 61.863281 C 31.109375 61.789062 30.582031 62.195312 30.507812 62.769531 Z M 29.445312 70.734375 L 28.097656 80.832031 C 28.023438 81.40625 28.429688 81.933594 29.003906 82.011719 C 29.582031 82.085938 30.109375 81.679688 30.183594 81.101562 L 31.53125 71.003906 C 31.605469 70.429688 31.199219 69.902344 30.625 69.828125 C 30.046875 69.75 29.519531 70.15625 29.445312 70.734375 Z M 16.875 22.152344 L 16.363281 18.691406 L 1.0625 18.691406 C 0.480469 18.691406 0.0078125 18.21875 0.0078125 17.636719 C 0.0078125 17.054688 0.480469 16.582031 1.0625 16.582031 L 17.273438 16.582031 C 17.789062 16.582031 18.238281 16.960938 18.316406 17.484375 L 18.886719 21.363281 C 18.195312 21.582031 17.523438 21.84375 16.875 22.152344 Z M 37.957031 73.140625 L 36.933594 80.820312 L 54.621094 80.820312 L 53.597656 73.140625 Z M 35.113281 0.00390625 L 53.175781 0.00390625 L 53.175781 5.109375 L 35.113281 5.109375 Z M 37.078125 25.953125 C 39.429688 28.609375 40.902344 32.066406 41.011719 35.863281 L 41.015625 35.921875 L 44.757812 35.921875 L 44.757812 38.035156 L 57.953125 38.035156 L 57.953125 25.953125 Z M 57.890625 23.84375 L 57.890625 23.78125 C 57.890625 18.558594 54.941406 13.992188 50.621094 11.667969 L 50.621094 7.21875 L 37.664062 7.21875 L 37.664062 11.667969 C 33.972656 13.65625 31.28125 17.28125 30.578125 21.554688 C 32.105469 22.101562 33.527344 22.878906 34.800781 23.84375 Z M 57.890625 23.84375 " fill-opacity="1" fill-rule="evenodd"/></g></svg>

<svg xmlns="http://www.w3.org/2000/svg" width="120" height="116" viewBox="0 0 90 87"><defs><clipPath id="a"><path d="M0 1.27h89.25v85.5H0Zm0 0"/></clipPath><clipPath id="b"><path d="M0 0h89.25v85.5H0Zm0 0"/></clipPath></defs><g clip-path="url(#a)"><path fill="#012430" fill-rule="evenodd" d="m53.316 72.3-3.77-28.277h7.017l.78-1.203a3.2 3.2 0 0 0 .524-1.402l-13.11.016v6.433h-3.26l-3.259 24.434Zm25.012 7.274-.656 4.93a2.776 2.776 0 0 1-2.762 2.422H59.836a2.773 2.773 0 0 1-2.762-2.422l-.66-4.93Zm4.461-33.441-.602 4.527H52.56l-.606-4.527Zm-.883 6.637-1.472 11.039-1.825 13.652H56.133l-1.82-13.652-1.473-11.04ZM65.082 67.93c-.59 0-1.125.242-1.512.629-.39.386-.629.925-.629 1.515v4.578c0 .59.239 1.125.63 1.512.39.39.925.629 1.511.629h4.578c.586 0 1.117-.238 1.508-.625l.008-.008a2.14 2.14 0 0 0 .629-1.508v-4.578c0-.547-.211-1.05-.555-1.433q-.034-.042-.074-.082a2.14 2.14 0 0 0-1.516-.63Zm4.578 2.11h-4.578q-.012 0-.023.01-.007.013-.008.024v4.578a.03.03 0 0 0 .008.02v.008q.006.005.023.004h4.578q.018.001.024-.004l.004-.004q.006-.006.007-.024v-4.578q.001-.01-.004-.015l-.007-.008q-.012-.012-.024-.012M59.352 57.784v.008a1.77 1.77 0 0 0 0 2.516l2.168 2.171a1.781 1.781 0 0 0 2.434.082.6.6 0 0 0 .089-.082l2.172-2.171h-.004c.352-.352.523-.809.523-1.262s-.171-.91-.52-1.258l-2.171-2.172a1.78 1.78 0 0 0-1.262-.523c-.418 0-.836.148-1.172.445q-.044.035-.09.078Zm3.43-.445-1.708 1.707 1.707 1.71 1.711-1.71Zm7.53 4.469.004.004-.004.003a1.99 1.99 0 0 0 0 2.813l2.793 2.793a1.997 1.997 0 0 0 2.82 0l2.794-2.793a1.99 1.99 0 0 0 .074-2.734.5.5 0 0 0-.074-.083l-2.793-2.792a1.99 1.99 0 0 0-1.41-.586v.004a2 2 0 0 0-1.41.582l-2.793 2.792Zm4.204-1.215-2.63 2.625 2.63 2.629 2.629-2.63Zm-4.762-16.57 1.035-7.047a1.06 1.06 0 0 1 1.043-.903H88.27a1.055 1.055 0 0 1 0 2.11H72.742l-.86 5.84Zm-27.11 1.734H6.243v-6.453h36.406v6.453Zm-32.66-8.563c.211-7.273 6.227-13.156 13.547-13.156h1.828c7.32 0 13.332 5.883 13.543 13.156ZM9.52 47.867h29.847l-2.043 15.324-2.722 20.414a2.734 2.734 0 0 1-2.723 2.387H17.012a2.74 2.74 0 0 1-2.727-2.387l-2.722-20.414Zm22.757 2.903-1.336 10.02a1.05 1.05 0 0 0 2.086.269l1.336-10.02a1.05 1.05 0 0 0-.906-1.176 1.05 1.05 0 0 0-1.18.907m-1.77 13.273-.433 3.246a1.057 1.057 0 0 0 .906 1.18 1.057 1.057 0 0 0 1.18-.91l.43-3.246a1.045 1.045 0 0 0-.906-1.176 1.045 1.045 0 0 0-1.176.906m-1.062 7.96-1.347 10.099a1.052 1.052 0 0 0 2.086.273l1.347-10.098a1.052 1.052 0 0 0-2.086-.273m-12.57-48.581-.512-3.457h-15.3a1.055 1.055 0 0 1 0-2.11h16.21c.516 0 .965.375 1.043.903l.57 3.879a16 16 0 0 0-2.011.785M37.957 74.41l-1.023 7.684H54.62l-1.023-7.684ZM35.113 1.277h18.063v5.106H35.113Zm1.965 25.95a15.6 15.6 0 0 1 3.934 9.906l.004.062h3.742v2.11h13.195V27.227Zm20.813-2.11v-.062c0-5.227-2.95-9.793-7.27-12.117V8.492H37.664v4.445c-3.691 1.989-6.383 5.618-7.086 9.891 1.527.543 2.95 1.32 4.223 2.29Zm0 0"/></g><g clip-path="url(#b)"><path fill="#012430" fill-rule="evenodd" d="m53.316 71.031-3.77-28.281h7.017l.78-1.2c.294-.448.462-.902.524-1.405l-13.11.02v6.433h-3.26L38.237 71.03Zm25.012 7.27-.656 4.933a2.77 2.77 0 0 1-2.762 2.418H59.836a2.77 2.77 0 0 1-2.762-2.418l-.66-4.933Zm4.461-33.442-.602 4.532H52.56l-.606-4.532Zm-.883 6.641-1.472 11.035-1.825 13.656H56.133l-1.82-13.656L52.84 51.5ZM65.082 66.66c-.59 0-1.125.238-1.512.63-.39.386-.629.92-.629 1.51v4.579c0 .594.239 1.129.63 1.516v-.004c.39.39.925.632 1.511.632h4.578c.586 0 1.117-.238 1.508-.625l.008-.007c.386-.391.629-.926.629-1.512V68.8c0-.547-.211-1.047-.555-1.43-.023-.027-.047-.058-.074-.082a2.13 2.13 0 0 0-1.516-.629Zm4.578 2.11h-4.578q-.012 0-.023.007-.007.012-.008.024v4.578q.001.012.008.023v.004q.006.007.023.008h4.578q.018-.001.024-.008l.004-.004q.006-.006.007-.023V68.8q.001-.006-.004-.012l-.007-.008q-.012-.011-.024-.011M59.352 56.516v.004a1.78 1.78 0 0 0 0 2.52l2.168 2.17a1.79 1.79 0 0 0 2.433.083q.048-.041.09-.082l2.172-2.172-.004-.004c.352-.347.523-.805.523-1.258 0-.457-.171-.914-.52-1.261l-2.171-2.168a1.78 1.78 0 0 0-1.262-.524c-.418 0-.836.149-1.172.446a1 1 0 0 0-.09.078Zm3.43-.45-1.708 1.711 1.707 1.711 1.711-1.71Zm7.53 4.473.004.004h-.004a1.995 1.995 0 0 0 0 2.816l2.793 2.793a1.997 1.997 0 0 0 2.82 0l2.794-2.793c.386-.39.582-.902.582-1.41 0-.472-.168-.949-.508-1.328q-.034-.041-.074-.082l-2.793-2.793a2 2 0 0 0-1.41-.582v.004c-.512 0-1.024.191-1.41.578Zm4.204-1.219-2.63 2.63 2.63 2.628 2.629-2.629Zm-4.762-16.57 1.035-7.043a1.054 1.054 0 0 1 1.043-.902H88.27a1.055 1.055 0 0 1 0 2.11H72.742l-.86 5.835Zm-27.11 1.738H6.243v-6.453h36.406v6.453Zm-32.66-8.566c.211-7.27 6.227-13.156 13.547-13.156h1.828c7.32 0 13.332 5.886 13.543 13.156ZM9.52 46.598h29.847l-2.043 15.32-2.722 20.418a2.734 2.734 0 0 1-2.723 2.383H17.012a2.74 2.74 0 0 1-2.727-2.383l-2.722-20.418Zm22.757 2.898-1.336 10.02a1.052 1.052 0 0 0 2.086.273l1.336-10.02a1.052 1.052 0 0 0-2.086-.273m-1.77 13.274-.433 3.246a1.052 1.052 0 0 0 2.086.273l.43-3.246a1.049 1.049 0 1 0-2.082-.273m-1.062 7.964-1.347 10.098a1.057 1.057 0 0 0 .906 1.18 1.05 1.05 0 0 0 1.18-.91l1.347-10.098a1.05 1.05 0 0 0-.906-1.176 1.047 1.047 0 0 0-1.18.906m-12.57-48.582-.512-3.46h-15.3a1.055 1.055 0 0 1 0-2.11h16.21c.516 0 .965.379 1.043.902l.57 3.88q-1.037.326-2.011.788m21.082 50.989-1.023 7.68H54.62l-1.023-7.68ZM35.113.004h18.063v5.105H35.113Zm1.965 25.95a15.6 15.6 0 0 1 3.934 9.91l.004.058h3.742v2.113h13.195V25.953Zm20.813-2.11v-.063c0-5.222-2.95-9.789-7.27-12.113v-4.45H37.664v4.45c-3.691 1.988-6.383 5.613-7.086 9.887a15.8 15.8 0 0 1 4.223 2.289Zm0 0"/></g></svg>
